;FLAVOR:Marlin
;TIME:20869
;Filament used: 36.4243m
;Layer height: 0.28
;MINX:26.954
;MINY:91.259
;MINZ:0.28
;MAXX:268.796
;MAXY:291.95
;MAXZ:36.12
;Generated with Cura_SteamEngine 5.2.1
M140 S60
M105
M190 S60
M104 S200
M105
M109 S200
M82 ;absolute extrusion mode
M201 X500.00 Y500.00 Z100.00 E5000.00 ;Setup machine max acceleration
M203 X500.00 Y500.00 Z10.00 E50.00 ;Setup machine max feedrate
M204 P500.00 R1000.00 T500.00 ;Setup Print/Retract/Travel acceleration
M205 X8.00 Y8.00 Z0.40 E5.00 ;Setup Jerk
M220 S100 ;Reset Feedrate
M221 S100 ;Reset Flowrate

G28 ;Home
M420 S1 Z2 ;Enable ABL using saved Mesh and Fade Height

G92 E0 ;Reset Extruder
G1 Z2.0 F3000 ;Move Z Axis up
G1 X10.1 Y20 Z0.28 F5000.0 ;Move to start position
G1 X10.1 Y200.0 Z0.28 F1500.0 E15 ;Draw the first line
G1 X10.4 Y200.0 Z0.28 F5000.0 ;Move to side a little
G1 X10.4 Y20 Z0.28 F1500.0 E30 ;Draw the second line
G92 E0 ;Reset Extruder
G1 Z2.0 F3000 ;Move Z Axis up

G92 E0
G92 E0
G1 F1500 E-6.5
;LAYER_COUNT:129
;LAYER:0
M107
G0 F6000 X221.709 Y137.545 Z0.28
;TYPE:SKIRT
G1 F1500 E0
G1 F1200 X222.18 Y136.893 E0.05618
G1 X222.714 Y136.291 E0.11239
G1 X223.305 Y135.744 E0.16863
G1 X223.947 Y135.259 E0.22483
G1 X224.634 Y134.84 E0.28104
G1 X225.359 Y134.491 E0.33724
G1 X226.116 Y134.217 E0.39347
G1 X226.895 Y134.018 E0.44962
G1 X227.691 Y133.898 E0.50585
G1 X228.495 Y133.857 E0.56208
G1 X228.899 Y133.867 E0.59031
G1 X251.873 Y134.994 E2.19688
G1 X252.674 Y135.073 E2.2531
G1 X253.463 Y135.231 E2.3093
G1 X254.232 Y135.467 E2.36549
G1 X254.974 Y135.778 E2.42168
G1 X255.682 Y136.162 E2.47794
G1 X256.348 Y136.613 E2.53412
G1 X256.966 Y137.128 E2.59031
G1 X257.53 Y137.703 E2.64656
G1 X258.034 Y138.33 E2.70275
G1 X258.504 Y139.057 E2.76322
G1 X265.815 Y151.818 E3.79044
G1 X266.643 Y153.251 E3.90604
G1 X267.734 Y155.164 E4.05986
G1 X268.098 Y155.882 E4.11608
G1 X268.388 Y156.633 E4.17231
G1 X268.603 Y157.408 E4.22849
G1 X268.739 Y158.201 E4.28468
G1 X268.796 Y159.004 E4.34091
G1 X268.788 Y159.574 E4.38073
G1 X266.907 Y197.94 E7.06367
G1 X266.828 Y198.74 E7.11982
G1 X266.67 Y199.529 E7.17602
G1 X266.434 Y200.299 E7.23227
G1 X266.123 Y201.041 E7.28847
G1 X265.702 Y201.811 E7.34976
G1 X264.093 Y204.406 E7.56303
G1 X259.389 Y211.953 E8.18417
G1 X258.037 Y214.137 E8.36358
G1 X256.089 Y217.255 E8.62036
G1 X255.629 Y217.915 E8.67656
G1 X255.106 Y218.527 E8.73278
G1 X254.525 Y219.084 E8.789
G1 X253.891 Y219.58 E8.84522
G1 X253.211 Y220.011 E8.90146
G1 X252.492 Y220.372 E8.95765
G1 X251.741 Y220.66 E9.01383
G1 X250.965 Y220.873 E9.07004
G1 X250.171 Y221.007 E9.12628
G1 X249.369 Y221.062 E9.18243
G1 X248.854 Y221.055 E9.2184
G1 X225.211 Y219.989 E10.87145
G1 X224.41 Y219.913 E10.92765
G1 X223.62 Y219.757 E10.9839
G1 X222.85 Y219.525 E11.04007
G1 X222.107 Y219.216 E11.09627
G1 X221.398 Y218.836 E11.15246
G1 X220.73 Y218.387 E11.20867
G1 X220.11 Y217.874 E11.26488
G1 X219.543 Y217.302 E11.32113
G1 X219.037 Y216.677 E11.3773
G1 X218.595 Y216.005 E11.43348
G1 X218.222 Y215.292 E11.48968
G1 X217.921 Y214.545 E11.54594
G1 X217.696 Y213.772 E11.60217
G1 X217.549 Y212.981 E11.65836
G1 X217.481 Y212.179 E11.71458
G1 X217.493 Y211.375 E11.77074
G1 X217.585 Y210.575 E11.82699
G1 X217.755 Y209.789 E11.88316
G1 X218.003 Y209.023 E11.93939
G1 X218.325 Y208.286 E11.99557
G1 X218.72 Y207.584 E12.05183
G1 X219.181 Y206.925 E12.108
G1 X219.706 Y206.315 E12.16422
G1 X220.289 Y205.76 E12.22044
G1 X221.196 Y205.083 E12.29949
G1 X239.287 Y193.455 E13.80158
G1 X239.985 Y193.054 E13.85781
G1 X240.719 Y192.724 E13.91402
G1 X240.936 Y192.652 E13.92999
G1 X242.407 Y162.644 E16.02845
G1 X241.663 Y162.245 E16.08742
G1 X240.929 Y161.742 E16.14957
G1 X223.562 Y148.376 E17.68024
G1 X222.949 Y147.854 E17.73648
G1 X222.391 Y147.274 E17.79269
G1 X221.894 Y146.641 E17.8489
G1 X221.462 Y145.963 E17.90506
G1 X221.099 Y145.244 E17.96131
G1 X220.809 Y144.494 E18.01748
G1 X220.596 Y143.718 E18.07368
G1 X220.46 Y142.924 E18.12995
G1 X220.404 Y142.122 E18.1861
G1 X220.427 Y141.317 E18.24235
G1 X220.531 Y140.519 E18.29856
G1 X220.713 Y139.735 E18.35478
G1 X220.972 Y138.973 E18.41099
G1 X221.305 Y138.241 E18.46716
G1 X221.709 Y137.545 E18.52337
G0 F6000 X222.036 Y138.158
G1 F1200 X222.462 Y137.511 E18.57747
G1 X222.952 Y136.912 E18.63153
G1 X223.502 Y136.367 E18.68561
G1 X224.105 Y135.881 E18.7397
G1 X224.755 Y135.46 E18.79379
G1 X225.445 Y135.108 E18.8479
G1 X226.167 Y134.83 E18.90193
G1 X226.915 Y134.627 E18.95607
G1 X227.679 Y134.502 E19.01014
G1 X228.452 Y134.457 E19.06422
G1 X228.869 Y134.466 E19.09336
G1 X251.843 Y135.593 E20.69993
G1 X252.614 Y135.671 E20.75406
G1 X253.372 Y135.828 E20.80813
G1 X254.11 Y136.062 E20.8622
G1 X254.82 Y136.371 E20.91629
G1 X255.495 Y136.751 E20.97039
G1 X256.126 Y137.2 E21.02448
G1 X256.708 Y137.71 E21.07853
G1 X257.234 Y138.279 E21.13265
G1 X257.699 Y138.898 E21.18673
G1 X257.984 Y139.356 E21.22441
G1 X265.296 Y152.118 E22.25173
G1 X266.122 Y153.548 E22.36707
G1 X267.213 Y155.461 E22.52089
G1 X267.561 Y156.153 E22.57499
G1 X267.837 Y156.877 E22.62911
G1 X268.036 Y157.625 E22.68317
G1 X268.157 Y158.39 E22.73727
G1 X268.189 Y159.544 E22.8179
G1 X266.308 Y197.91 E25.50084
G1 X266.23 Y198.681 E25.55497
G1 X266.073 Y199.439 E25.60904
G1 X265.839 Y200.177 E25.66311
G1 X265.53 Y200.887 E25.7172
G1 X265.192 Y201.494 E25.76572
G1 X263.584 Y204.088 E25.97889
G1 X258.88 Y211.635 E26.60003
G1 X257.528 Y213.819 E26.77944
G1 X255.58 Y216.937 E27.03623
G1 X255.136 Y217.572 E27.09035
G1 X254.629 Y218.157 E27.14442
G1 X254.065 Y218.687 E27.19848
G1 X253.449 Y219.156 E27.25255
G1 X252.788 Y219.56 E27.30666
G1 X252.089 Y219.892 E27.36071
G1 X251.359 Y220.151 E27.41481
G1 X250.606 Y220.334 E27.46894
G1 X249.839 Y220.437 E27.52299
G1 X248.881 Y220.455 E27.58992
G1 X225.238 Y219.389 E29.24297
G1 X224.467 Y219.315 E29.29707
G1 X223.709 Y219.161 E29.35109
G1 X222.97 Y218.93 E29.40517
G1 X222.258 Y218.623 E29.45933
G1 X221.583 Y218.245 E29.51336
G1 X220.949 Y217.8 E29.56747
G1 X220.365 Y217.291 E29.62158
G1 X219.837 Y216.725 E29.67564
G1 X219.37 Y216.108 E29.72969
G1 X218.969 Y215.445 E29.78381
G1 X218.638 Y214.745 E29.83789
G1 X218.381 Y214.015 E29.89194
G1 X218.201 Y213.262 E29.94602
G1 X218.1 Y212.494 E30.00012
G1 X218.078 Y211.72 E30.05421
G1 X218.136 Y210.948 E30.10828
G1 X218.274 Y210.186 E30.16237
G1 X218.489 Y209.442 E30.21646
G1 X218.78 Y208.724 E30.27057
G1 X219.143 Y208.04 E30.32466
G1 X219.575 Y207.398 E30.37871
G1 X220.071 Y206.803 E30.43281
G1 X220.626 Y206.263 E30.4869
G1 X221.521 Y205.588 E30.5652
G1 X239.612 Y193.96 E32.06729
G1 X240.284 Y193.575 E32.12138
G1 X240.992 Y193.262 E32.17545
G1 X241.515 Y193.093 E32.21384
G1 X243.026 Y162.254 E34.37041
G1 X242.525 Y162.036 E34.40858
G1 X241.85 Y161.656 E34.46268
G1 X241.295 Y161.267 E34.51002
G1 X223.928 Y147.901 E36.04069
G1 X223.339 Y147.397 E36.09484
G1 X222.806 Y146.836 E36.14889
G1 X222.333 Y146.223 E36.20297
G1 X221.926 Y145.564 E36.25706
G1 X221.589 Y144.867 E36.31114
G1 X221.326 Y144.138 E36.36527
G1 X221.14 Y143.387 E36.41931
G1 X221.031 Y142.62 E36.47342
G1 X221.003 Y141.846 E36.52752
G1 X221.054 Y141.074 E36.58155
G1 X221.185 Y140.31 E36.6357
G1 X221.394 Y139.565 E36.68974
G1 X221.678 Y138.845 E36.7438
G1 X222.036 Y138.158 E36.79791
G0 F6000 X222.398 Y138.74
G1 F1200 X222.779 Y138.102 E36.84981
G1 X223.227 Y137.509 E36.90172
G1 X223.735 Y136.968 E36.95356
G1 X224.299 Y136.485 E37.00542
G1 X224.912 Y136.065 E37.05732
G1 X225.566 Y135.713 E37.1092
G1 X226.254 Y135.433 E37.16108
G1 X226.968 Y135.23 E37.21293
G1 X227.7 Y135.104 E37.26481
G1 X228.441 Y135.057 E37.31667
G1 X228.84 Y135.065 E37.34454
G1 X251.814 Y136.192 E38.95112
G1 X252.553 Y136.269 E39.00301
G1 X253.279 Y136.424 E39.05487
G1 X253.985 Y136.656 E39.10677
G1 X254.661 Y136.963 E39.15863
G1 X255.3 Y137.341 E39.21048
G1 X255.895 Y137.785 E39.26234
G1 X256.439 Y138.291 E39.31423
G1 X256.926 Y138.852 E39.36612
G1 X257.463 Y139.654 E39.43353
G1 X264.776 Y152.419 E40.46107
G1 X265.601 Y153.846 E40.5762
G1 X266.692 Y155.759 E40.73002
G1 X267.024 Y156.423 E40.78187
G1 X267.284 Y157.119 E40.83376
G1 X267.467 Y157.838 E40.88558
G1 X267.572 Y158.574 E40.93751
G1 X267.59 Y159.515 E41.00325
G1 X265.709 Y197.881 E43.68619
G1 X265.632 Y198.62 E43.73809
G1 X265.477 Y199.346 E43.78994
G1 X265.245 Y200.051 E43.84178
G1 X264.938 Y200.728 E43.8937
G1 X264.682 Y201.178 E43.92986
G1 X263.075 Y203.771 E44.14293
G1 X258.37 Y211.317 E44.76405
G1 X257.019 Y213.501 E44.94342
G1 X255.071 Y216.619 E45.20021
G1 X254.644 Y217.227 E45.2521
G1 X254.154 Y217.785 E45.30397
G1 X253.607 Y218.288 E45.35587
G1 X253.01 Y218.728 E45.40767
G1 X252.368 Y219.103 E45.4596
G1 X251.69 Y219.405 E45.51145
G1 X250.983 Y219.634 E45.56335
G1 X250.256 Y219.785 E45.61521
G1 X249.517 Y219.857 E45.66708
G1 X248.908 Y219.856 E45.70961
G1 X225.265 Y218.79 E47.36267
G1 X224.526 Y218.717 E47.41453
G1 X223.799 Y218.564 E47.46642
G1 X223.093 Y218.335 E47.51826
G1 X222.415 Y218.031 E47.57016
G1 X221.774 Y217.655 E47.62207
G1 X221.178 Y217.213 E47.67389
G1 X220.632 Y216.71 E47.72575
G1 X220.143 Y216.15 E47.77767
G1 X219.717 Y215.542 E47.82953
G1 X219.359 Y214.891 E47.88142
G1 X219.074 Y214.206 E47.93324
G1 X218.863 Y213.493 E47.98518
G1 X218.731 Y212.763 E48.03699
G1 X218.677 Y212.022 E48.08888
G1 X218.704 Y211.28 E48.14074
G1 X218.81 Y210.545 E48.19261
G1 X218.994 Y209.825 E48.24452
G1 X219.255 Y209.13 E48.29637
G1 X219.589 Y208.466 E48.34828
G1 X219.993 Y207.843 E48.40015
G1 X220.461 Y207.266 E48.45204
G1 X220.988 Y206.743 E48.5039
G1 X221.845 Y206.093 E48.57903
G1 X239.936 Y194.465 E50.08112
G1 X240.582 Y194.097 E50.13305
G1 X241.263 Y193.801 E50.18491
G1 X242.093 Y193.542 E50.24564
G1 X243.647 Y161.845 E52.46222
G1 X243.36 Y161.751 E52.48331
G1 X242.684 Y161.444 E52.53517
G1 X242.045 Y161.066 E52.58702
G1 X241.661 Y160.791 E52.62001
G1 X224.294 Y147.425 E54.15069
G1 X223.73 Y146.941 E54.2026
G1 X223.222 Y146.399 E54.25448
G1 X222.775 Y145.806 E54.30635
G1 X222.395 Y145.168 E54.35822
G1 X222.085 Y144.493 E54.4101
G1 X221.85 Y143.789 E54.46194
G1 X221.691 Y143.063 E54.51385
G1 X221.612 Y142.325 E54.56569
G1 X221.612 Y141.582 E54.61758
G1 X221.692 Y140.844 E54.66943
G1 X221.851 Y140.118 E54.72134
G1 X222.088 Y139.414 E54.77323
G1 X222.398 Y138.74 E54.82504
G0 F6000 X222.796 Y139.287
G1 F1200 X223.132 Y138.663 E54.87454
G1 X223.537 Y138.08 E54.92413
G1 X224.004 Y137.546 E54.97367
G1 X224.529 Y137.068 E55.02327
G1 X225.104 Y136.652 E55.07284
G1 X225.722 Y136.304 E55.12237
G1 X226.375 Y136.027 E55.17192
G1 X227.056 Y135.825 E55.22153
G1 X227.755 Y135.701 E55.27112
G1 X228.811 Y135.665 E55.34492
G1 X251.785 Y136.792 E56.95149
G1 X252.49 Y136.866 E57.00101
G1 X253.183 Y137.02 E57.05059
G1 X253.854 Y137.25 E57.10013
G1 X254.495 Y137.555 E57.14972
G1 X255.098 Y137.929 E57.19928
G1 X255.655 Y138.369 E57.24886
G1 X256.159 Y138.869 E57.29844
G1 X256.603 Y139.423 E57.34803
G1 X256.942 Y139.952 E57.39192
G1 X264.257 Y152.719 E58.41964
G1 X265.08 Y154.143 E58.53452
G1 X266.171 Y156.056 E58.68834
G1 X266.487 Y156.691 E58.73788
G1 X266.73 Y157.358 E58.78746
G1 X266.896 Y158.048 E58.83703
G1 X266.984 Y158.752 E58.88658
G1 X266.99 Y159.486 E58.93785
G1 X265.109 Y197.852 E61.6208
G1 X265.035 Y198.557 E61.67031
G1 X264.881 Y199.25 E61.71989
G1 X264.651 Y199.921 E61.76944
G1 X264.172 Y200.862 E61.84319
G1 X256.51 Y213.183 E62.85659
G1 X254.562 Y216.301 E63.11338
G1 X254.153 Y216.881 E63.16295
G1 X253.681 Y217.411 E63.21252
G1 X253.152 Y217.884 E63.26209
G1 X252.574 Y218.295 E63.31162
G1 X251.953 Y218.639 E63.36121
G1 X251.297 Y218.91 E63.41078
G1 X250.615 Y219.106 E63.46035
G1 X249.915 Y219.224 E63.50993
G1 X248.935 Y219.257 E63.57842
G1 X225.292 Y218.191 E65.23147
G1 X224.586 Y218.119 E65.28104
G1 X223.893 Y217.968 E65.33058
G1 X223.221 Y217.74 E65.38014
G1 X222.579 Y217.438 E65.4297
G1 X221.974 Y217.066 E65.4793
G1 X221.416 Y216.628 E65.52885
G1 X220.91 Y216.13 E65.57844
G1 X220.464 Y215.579 E65.62795
G1 X220.082 Y214.98 E65.67757
G1 X219.77 Y214.343 E65.72711
G1 X219.532 Y213.674 E65.77671
G1 X219.37 Y212.983 E65.82628
G1 X219.288 Y212.279 E65.87579
G1 X219.285 Y211.569 E65.92538
G1 X219.361 Y210.863 E65.97497
G1 X219.517 Y210.171 E66.02452
G1 X219.75 Y209.501 E66.07407
G1 X220.056 Y208.861 E66.12361
G1 X220.433 Y208.259 E66.17323
G1 X220.874 Y207.704 E66.22274
G1 X221.376 Y207.202 E66.27233
G1 X222.17 Y206.597 E66.34205
G1 X240.261 Y194.969 E67.84414
G1 X240.878 Y194.62 E67.89365
G1 X241.531 Y194.342 E67.94322
G1 X242.211 Y194.139 E67.99279
G1 X242.669 Y194.058 E68.02528
G1 X244.269 Y161.424 E70.30738
G1 X243.491 Y161.157 E70.36483
G1 X242.85 Y160.852 E70.41441
G1 X242.027 Y160.316 E70.48301
G1 X224.66 Y146.95 E72.01368
G1 X224.122 Y146.486 E72.06331
G1 X223.641 Y145.965 E72.11283
G1 X223.221 Y145.392 E72.16245
G1 X222.868 Y144.777 E72.21198
G1 X222.587 Y144.125 E72.26157
G1 X222.381 Y143.446 E72.31113
G1 X222.252 Y142.748 E72.36071
G1 X222.203 Y142.04 E72.41028
G1 X222.233 Y141.331 E72.45985
G1 X222.343 Y140.63 E72.50941
G1 X222.532 Y139.946 E72.55897
G1 X222.796 Y139.287 E72.60856
G0 F6000 X223.227 Y139.798
G1 F1200 X223.519 Y139.189 E72.65573
G1 X223.881 Y138.62 E72.70283
G1 X224.308 Y138.097 E72.74999
G1 X224.794 Y137.628 E72.79717
G1 X225.331 Y137.22 E72.84427
G1 X225.914 Y136.879 E72.89145
G1 X226.532 Y136.608 E72.93858
G1 X227.178 Y136.413 E72.98571
G1 X227.843 Y136.295 E73.03288
G1 X228.781 Y136.264 E73.09844
G1 X251.755 Y137.391 E74.70501
G1 X252.426 Y137.464 E74.75216
G1 X253.084 Y137.616 E74.79933
G1 X253.719 Y137.844 E74.84645
G1 X254.323 Y138.146 E74.89362
G1 X254.887 Y138.517 E74.94077
G1 X255.403 Y138.952 E74.98791
G1 X255.863 Y139.445 E75.035
G1 X256.422 Y140.25 E75.10346
G1 X265.649 Y156.353 E76.39975
G1 X265.948 Y156.958 E76.44688
G1 X266.174 Y157.595 E76.49409
G1 X266.323 Y158.253 E76.54122
G1 X266.392 Y158.924 E76.58833
G1 X266.391 Y159.456 E76.62549
G1 X264.51 Y197.822 E79.30843
G1 X264.437 Y198.493 E79.35557
G1 X264.286 Y199.151 E79.40273
G1 X264.057 Y199.786 E79.44987
G1 X263.662 Y200.546 E79.5097
G1 X262.056 Y203.136 E79.72256
G1 X257.352 Y210.683 E80.3437
G1 X256.001 Y212.865 E80.52295
G1 X254.053 Y215.983 E80.77974
G1 X253.662 Y216.533 E80.82687
G1 X253.209 Y217.034 E80.87405
G1 X252.7 Y217.477 E80.92118
G1 X252.142 Y217.857 E80.96833
G1 X251.543 Y218.168 E81.01547
G1 X250.911 Y218.406 E81.06264
G1 X250.256 Y218.568 E81.10977
G1 X249.586 Y218.651 E81.15693
G1 X248.962 Y218.657 E81.20051
G1 X225.319 Y217.591 E82.85357
G1 X224.648 Y217.521 E82.90069
G1 X223.99 Y217.372 E82.94781
G1 X223.354 Y217.146 E82.99495
G1 X222.749 Y216.846 E83.04212
G1 X222.183 Y216.477 E83.08931
G1 X221.666 Y216.044 E83.13641
G1 X221.203 Y215.553 E83.18355
G1 X220.801 Y215.01 E83.23074
G1 X220.467 Y214.424 E83.27785
G1 X220.204 Y213.803 E83.32496
G1 X220.016 Y213.154 E83.37215
G1 X219.907 Y212.488 E83.41929
G1 X219.877 Y211.814 E83.46641
G1 X219.926 Y211.141 E83.51354
G1 X220.055 Y210.478 E83.56072
G1 X220.262 Y209.836 E83.60783
G1 X220.543 Y209.222 E83.655
G1 X220.894 Y208.646 E83.70211
G1 X221.312 Y208.115 E83.74931
G1 X221.788 Y207.637 E83.79643
G1 X222.494 Y207.102 E83.8583
G1 X240.585 Y195.474 E85.36039
G1 X241.173 Y195.143 E85.40752
G1 X241.797 Y194.885 E85.45468
G1 X242.446 Y194.701 E85.5018
G1 X243.245 Y194.575 E85.5583
G1 X244.893 Y160.937 E87.9106
G1 X244.261 Y160.791 E87.95591
G1 X243.626 Y160.563 E88.00303
G1 X243.022 Y160.261 E88.0502
G1 X242.393 Y159.84 E88.10307
G1 X225.026 Y146.474 E89.63374
G1 X224.516 Y146.031 E89.68092
G1 X224.062 Y145.532 E89.72804
G1 X223.671 Y144.982 E89.77518
G1 X223.347 Y144.39 E89.82231
G1 X223.096 Y143.763 E89.86949
G1 X222.92 Y143.111 E89.91666
G1 X222.823 Y142.443 E89.9638
