;FLAVOR:Marlin
;TIME:15451
;Filament used: 22.2477m
;Layer height: 0.28
;MINX:26.015
;MINY:17.501
;MINZ:0.28
;MAXX:193.985
;MAXY:202.485
;MAXZ:15.12
;Generated with Cura_SteamEngine 5.2.1
M140 S50
M105
M190 S50
M104 S200
M105
M109 S200
M82 ;absolute extrusion mode
M201 X500.00 Y500.00 Z100.00 E5000.00 ;Setup machine max acceleration
M203 X500.00 Y500.00 Z10.00 E50.00 ;Setup machine max feedrate
M204 P500.00 R1000.00 T500.00 ;Setup Print/Retract/Travel acceleration
M205 X8.00 Y8.00 Z0.40 E5.00 ;Setup Jerk
M220 S100 ;Reset Feedrate
M221 S100 ;Reset Flowrate

G28 ;Home

G92 E0 ;Reset Extruder
G1 Z2.0 F3000 ;Move Z Axis up
G1 X10.1 Y20 Z0.28 F5000.0 ;Move to start position
G1 X10.1 Y200.0 Z0.28 F1500.0 E15 ;Draw the first line
G1 X10.4 Y200.0 Z0.28 F5000.0 ;Move to side a little
G1 X10.4 Y20 Z0.28 F1500.0 E30 ;Draw the second line
G92 E0 ;Reset Extruder
G1 Z2.0 F3000 ;Move Z Axis up

G92 E0
G92 E0
G1 F2700 E-5
;LAYER_COUNT:54
;LAYER:0
M107
G0 F6000 X69.725 Y26.252 Z0.28
;TYPE:SKIRT
G1 F2700 E0
G1 F1200 X70.119 Y25.264 E0.04953
G1 X70.25 Y24.977 E0.06422
G1 X70.676 Y24.142 E0.10787
G1 X71.135 Y23.397 E0.14861
G1 X71.35 Y23.078 E0.16653
G1 X71.907 Y22.324 E0.21018
G1 X72.641 Y21.501 E0.26153
G1 X72.86 Y21.279 E0.27605
G1 X73.547 Y20.64 E0.31973
G1 X74.226 Y20.104 E0.36002
G1 X74.522 Y19.889 E0.37705
G1 X75.304 Y19.371 E0.42073
G1 X76.224 Y18.874 E0.46942
G1 X76.53 Y18.727 E0.48523
G1 X77.392 Y18.357 E0.52891
G1 X78.291 Y18.06 E0.57299
G1 X78.64 Y17.961 E0.58988
G1 X79.552 Y17.743 E0.63355
G1 X80.617 Y17.591 E0.68364
G1 X80.927 Y17.562 E0.69814
G1 X81.777 Y17.515 E0.73778
G1 X82.656 Y17.501 E0.77871
G1 X137.464 Y17.501 E3.3308
G1 X138.17 Y17.512 E3.36368
G1 X138.898 Y17.548 E3.39762
G1 X139.215 Y17.574 E3.41243
G1 X140.146 Y17.69 E3.45612
G1 X140.976 Y17.863 E3.4956
G1 X141.293 Y17.942 E3.51081
G1 X142.193 Y18.208 E3.55451
G1 X143.109 Y18.568 E3.60034
G1 X143.448 Y18.719 E3.61762
G1 X144.287 Y19.137 E3.66127
G1 X145.151 Y19.666 E3.70844
G1 X145.45 Y19.869 E3.72527
G1 X146.203 Y20.429 E3.76896
G1 X146.999 Y21.142 E3.81872
G1 X147.235 Y21.375 E3.83417
G1 X147.874 Y22.062 E3.87786
G1 X148.475 Y22.833 E3.92338
G1 X148.681 Y23.123 E3.93994
G1 X149.191 Y23.91 E3.98361
G1 X149.64 Y24.754 E4.02812
G1 X149.798 Y25.085 E4.0452
G1 X150.252 Y26.185 E4.10061
G1 X150.476 Y26.824 E4.13214
G1 X150.941 Y28.219 E4.20061
G1 X151.791 Y30.547 E4.31601
G1 X152.745 Y32.946 E4.43623
G1 X153.724 Y35.222 E4.5516
G1 X154.789 Y37.513 E4.66924
G1 X155.918 Y39.775 E4.78696
G1 X157.102 Y41.985 E4.9037
G1 X158.354 Y44.174 E5.02113
G1 X159.665 Y46.321 E5.13827
G1 X161.03 Y48.423 E5.25497
G1 X162.467 Y50.501 E5.37261
G1 X163.962 Y52.54 E5.49034
G1 X165.483 Y54.494 E5.60565
G1 X167.111 Y56.469 E5.72483
G1 X168.729 Y58.322 E5.83937
G1 X170.37 Y60.076 E5.95122
G1 X170.565 Y60.304 E5.96519
G1 X171.637 Y61.447 E6.03816
G1 X172.955 Y62.903 E6.12961
G1 X173.607 Y63.652 E6.17585
G1 X174.728 Y64.979 E6.25673
G1 X175.458 Y65.875 E6.31055
G1 X176.664 Y67.408 E6.40137
G1 X177.153 Y68.053 E6.43906
G1 X178.404 Y69.764 E6.53776
G1 X178.96 Y70.556 E6.58282
G1 X179.972 Y72.045 E6.66665
G1 X180.508 Y72.861 E6.71211
G1 X181.665 Y74.702 E6.81336
G1 X182.183 Y75.561 E6.86007
G1 X183.042 Y77.04 E6.93971
G1 X183.621 Y78.077 E6.99501
G1 X184.456 Y79.634 E7.07728
G1 X184.99 Y80.673 E7.13168
G1 X185.748 Y82.215 E7.21168
G1 X186.273 Y83.334 E7.26924
G1 X186.961 Y84.867 E7.34748
G1 X187.451 Y86.013 E7.40552
G1 X188.1 Y87.604 E7.48553
G1 X188.534 Y88.724 E7.54146
G1 X189.129 Y90.343 E7.62178
G1 X189.462 Y91.296 E7.66878
G1 X190.137 Y93.351 E7.7695
G1 X190.349 Y94.037 E7.80293
G1 X190.919 Y96 E7.89812
G1 X191.22 Y97.11 E7.95167
G1 X191.647 Y98.805 E8.03306
G1 X191.919 Y99.967 E8.08863
G1 X192.279 Y101.637 E8.16818
G1 X192.524 Y102.878 E8.22708
G1 X192.846 Y104.685 E8.31255
G1 X193.019 Y105.769 E8.36366
G1 X193.253 Y107.402 E8.44048
G1 X193.411 Y108.663 E8.49965
G1 X193.612 Y110.535 E8.58732
G1 X193.686 Y111.359 E8.62585
G1 X193.843 Y113.522 E8.72683
G1 X193.894 Y114.485 E8.77173
G1 X193.959 Y116.245 E8.85374
G1 X193.98 Y117.208 E8.8986
G1 X193.985 Y119.417 E9.00146
G1 X193.972 Y120.243 E9.03992
G1 X193.904 Y122.3 E9.13576
G1 X193.851 Y123.312 E9.18295
G1 X193.733 Y125.055 E9.26429
G1 X193.627 Y126.294 E9.3222
G1 X193.456 Y127.951 E9.39976
G1 X193.311 Y129.154 E9.45619
G1 X193.038 Y131.109 E9.5481
G1 X192.912 Y131.911 E9.5859
G1 X192.551 Y133.978 E9.68361
G1 X192.393 Y134.799 E9.72254
G1 X191.968 Y136.819 E9.81866
G1 X191.782 Y137.635 E9.85763
G1 X191.26 Y139.736 E9.95844
G1 X191.053 Y140.513 E9.99588
G1 X190.493 Y142.48 E10.09111
G1 X190.231 Y143.345 E10.13319
G1 X189.599 Y145.301 E10.22891
G1 X189.333 Y146.077 E10.26711
G1 X188.604 Y148.091 E10.36684
G1 X188.321 Y148.832 E10.40378
G1 X187.509 Y150.852 E10.50515
G1 X187.122 Y151.763 E10.55124
G1 X186.344 Y153.512 E10.64038
G1 X186.014 Y154.224 E10.67692
G1 X185.084 Y156.141 E10.77613
G1 X184.708 Y156.881 E10.81478
G1 X183.734 Y158.717 E10.91156
G1 X183.22 Y159.646 E10.961
G1 X182.353 Y161.153 E11.04195
G1 X181.728 Y162.194 E11.09849
G1 X180.836 Y163.627 E11.17709
G1 X180.257 Y164.524 E11.2268
G1 X179.089 Y166.26 E11.32423
G1 X178.507 Y167.089 E11.3714
G1 X177.372 Y168.653 E11.46138
G1 X176.806 Y169.403 E11.50513
G1 X175.591 Y170.959 E11.59706
G1 X174.955 Y171.745 E11.64414
G1 X173.818 Y173.103 E11.72661
G1 X173.156 Y173.868 E11.77372
G1 X171.899 Y175.269 E11.86136
G1 X171.094 Y176.135 E11.91642
G1 X169.736 Y177.542 E12.00747
G1 X169.056 Y178.221 E12.05222
G1 X167.643 Y179.585 E12.14367
G1 X166.907 Y180.272 E12.19055
G1 X165.552 Y181.492 E12.27545
G1 X164.698 Y182.235 E12.32816
G1 X163.386 Y183.34 E12.40803
G1 X162.477 Y184.077 E12.46252
G1 X161.093 Y185.162 E12.54441
G1 X160.15 Y185.873 E12.5994
G1 X158.695 Y186.932 E12.6832
G1 X157.936 Y187.466 E12.72641
G1 X156.122 Y188.693 E12.82839
G1 X155.483 Y189.109 E12.86389
G1 X153.634 Y190.266 E12.96545
G1 X152.776 Y190.78 E13.01203
G1 X151.287 Y191.641 E13.09212
G1 X150.369 Y192.151 E13.14102
G1 X148.529 Y193.131 E13.23809
G1 X147.659 Y193.574 E13.28355
G1 X146.08 Y194.345 E13.36537
G1 X145.2 Y194.758 E13.41064
G1 X143.201 Y195.649 E13.51255
G1 X142.318 Y196.021 E13.55716
G1 X140.677 Y196.686 E13.63961
G1 X139.575 Y197.11 E13.69459
G1 X137.942 Y197.705 E13.77552
G1 X136.791 Y198.102 E13.83221
G1 X135.187 Y198.624 E13.91076
G1 X134.072 Y198.966 E13.96507
G1 X132.328 Y199.468 E14.04957
G1 X131.192 Y199.772 E14.10433
G1 X129.32 Y200.238 E14.19416
G1 X128.35 Y200.461 E14.2405
G1 X126.632 Y200.827 E14.3223
G1 X125.423 Y201.062 E14.37965
G1 X123.602 Y201.382 E14.46574
G1 X122.552 Y201.547 E14.51523
G1 X120.855 Y201.786 E14.59503
G1 X119.636 Y201.935 E14.65221
G1 X117.733 Y202.133 E14.7413
G1 X116.759 Y202.217 E14.78683
G1 X115 Y202.341 E14.86894
G1 X114.029 Y202.394 E14.91422
G1 X112.023 Y202.465 E15.00768
G1 X110.86 Y202.485 E15.06184
G1 X109.072 Y202.484 E15.1451
G1 X107.918 Y202.464 E15.19884
G1 X105.97 Y202.394 E15.28961
G1 X104.961 Y202.339 E15.33666
G1 X103.234 Y202.217 E15.41728
G1 X102.227 Y202.13 E15.46434
G1 X100.122 Y201.908 E15.56291
G1 X99.347 Y201.812 E15.59927
G1 X97.153 Y201.502 E15.70245
G1 X96.451 Y201.39 E15.73555
G1 X94.278 Y201.005 E15.83831
G1 X93.349 Y200.823 E15.88239
G1 X91.611 Y200.452 E15.96514
G1 X90.677 Y200.238 E16.00976
G1 X88.584 Y199.714 E16.11022
G1 X87.636 Y199.457 E16.15596
G1 X85.913 Y198.961 E16.23945
G1 X84.781 Y198.614 E16.29458
G1 X83.182 Y198.093 E16.37289
G1 X82.034 Y197.696 E16.42945
G1 X80.176 Y197.016 E16.52158
G1 X79.433 Y196.73 E16.55865
G1 X77.697 Y196.029 E16.64583
G1 X76.531 Y195.533 E16.70483
G1 X74.801 Y194.759 E16.79308
G1 X74.046 Y194.406 E16.83189
G1 X72.398 Y193.603 E16.91725
G1 X71.276 Y193.03 E16.97592
G1 X69.734 Y192.208 E17.05728
G1 X68.666 Y191.614 E17.11419
G1 X67.004 Y190.651 E17.20363
G1 X66.304 Y190.228 E17.24171
G1 X64.494 Y189.094 E17.34117
G1 X63.783 Y188.631 E17.38068
G1 X62.266 Y187.606 E17.46593
G1 X61.209 Y186.863 E17.52609
G1 X59.854 Y185.876 E17.60415
G1 X58.93 Y185.178 E17.65807
G1 X57.508 Y184.065 E17.74216
G1 X56.777 Y183.473 E17.78596
G1 X55.116 Y182.077 E17.88699
G1 X54.52 Y181.557 E17.92382
G1 X52.894 Y180.089 E18.02582
G1 X52.166 Y179.406 E18.07231
G1 X50.942 Y178.22 E18.15167
G1 X50.108 Y177.383 E18.20669
G1 X48.912 Y176.14 E18.28701
G1 X48.24 Y175.421 E18.33283
G1 X46.792 Y173.809 E18.43373
G1 X46.148 Y173.062 E18.47966
G1 X44.98 Y171.666 E18.56441
G1 X44.286 Y170.805 E18.61591
G1 X43.107 Y169.29 E18.70529
G1 X42.619 Y168.641 E18.7431
G1 X41.344 Y166.881 E18.8443
G1 X40.77 Y166.055 E18.89114
G1 X39.71 Y164.475 E18.97973
G1 X39.277 Y163.806 E19.01684
G1 X38.144 Y161.986 E19.11667
G1 X37.705 Y161.251 E19.15653
G1 X36.742 Y159.578 E19.24642
G1 X36.176 Y158.552 E19.30098
G1 X35.367 Y157.025 E19.38145
G1 X34.83 Y155.967 E19.43669
G1 X34.066 Y154.393 E19.51816
G1 X33.537 Y153.251 E19.57677
G1 X32.858 Y151.716 E19.65492
G1 X32.384 Y150.592 E19.71173
G1 X31.737 Y148.981 E19.79256
G1 X31.314 Y147.874 E19.84775
G1 X30.739 Y146.285 E19.92643
G1 X30.33 Y145.09 E19.98525
G1 X29.821 Y143.514 E20.06236
G1 X29.453 Y142.298 E20.12152
G1 X28.989 Y140.67 E20.20035
G1 X28.668 Y139.461 E20.25859
G1 X28.219 Y137.635 E20.34615
G1 X27.996 Y136.655 E20.39295
G1 X27.63 Y134.914 E20.47579
G1 X27.448 Y133.975 E20.52033
G1 X27.076 Y131.841 E20.6212
G1 X26.921 Y130.834 E20.66864
G1 X26.686 Y129.132 E20.74864
G1 X26.566 Y128.145 E20.79494
G1 X26.35 Y126.049 E20.89305
G1 X26.281 Y125.247 E20.93054
G1 X26.136 Y123.09 E21.0312
G1 X26.096 Y122.303 E21.0679
G1 X26.027 Y120.175 E21.16704
G1 X26.015 Y119.347 E21.2056
G1 X26.021 Y117.153 E21.30776
G1 X26.037 Y116.373 E21.34409
G1 X26.108 Y114.465 E21.43299
G1 X26.172 Y113.304 E21.48713
G1 X26.319 Y111.304 E21.58051
G1 X26.408 Y110.335 E21.62583
G1 X26.616 Y108.423 E21.71538
G1 X26.745 Y107.417 E21.76261
G1 X26.991 Y105.702 E21.84328
G1 X27.18 Y104.536 E21.89829
G1 X27.533 Y102.583 E21.9907
G1 X27.727 Y101.61 E22.0369
G1 X28.086 Y99.945 E22.11621
G1 X28.367 Y98.745 E22.1736
G1 X28.835 Y96.901 E22.26218
G1 X29.044 Y96.13 E22.29938
G1 X29.652 Y94.036 E22.40091
G1 X29.871 Y93.328 E22.43542
G1 X30.56 Y91.23 E22.53825
G1 X30.867 Y90.354 E22.58147
G1 X31.482 Y88.681 E22.66447
G1 X31.924 Y87.543 E22.72131
G1 X32.575 Y85.95 E22.80145
G1 X32.956 Y85.057 E22.84665
G1 X33.828 Y83.114 E22.94582
G1 X34.181 Y82.364 E22.98442
G1 X35.083 Y80.53 E23.07959
G1 X35.578 Y79.568 E23.12997
G1 X36.386 Y78.062 E23.20955
G1 X36.866 Y77.2 E23.25549
G1 X37.95 Y75.337 E23.35585
G1 X38.47 Y74.483 E23.40241
G1 X39.515 Y72.825 E23.49367
G1 X39.926 Y72.197 E23.52862
G1 X41.185 Y70.346 E23.63286
G1 X41.715 Y69.598 E23.67554
G1 X42.756 Y68.176 E23.7576
G1 X43.341 Y67.404 E23.80271
G1 X44.658 Y65.729 E23.90192
G1 X45.301 Y64.943 E23.94921
G1 X46.431 Y63.607 E24.03069
G1 X47.086 Y62.858 E24.07702
G1 X48.53 Y61.266 E24.1771
G1 X50.658 Y58.997 E24.32195
G1 X52.329 Y57.119 E24.439
G1 X53.936 Y55.211 E24.55516
G1 X55.528 Y53.204 E24.67445
G1 X57.015 Y51.22 E24.7899
G1 X58.463 Y49.167 E24.90688
G1 X59.875 Y47.04 E25.02576
G1 X61.194 Y44.927 E25.14174
G1 X62.467 Y42.751 E25.25913
G1 X63.684 Y40.533 E25.37694
G1 X64.815 Y38.321 E25.49262
G1 X65.914 Y36.016 E25.61153
G1 X66.921 Y33.738 E25.7275
G1 X67.892 Y31.36 E25.84711
G1 X68.764 Y29.044 E25.96234
G1 X69.725 Y26.252 E26.09983
G0 F6000 X70.103 Y26.382
G1 F1200 X70.483 Y25.431 E26.14752
G1 X70.614 Y25.144 E26.16221
G1 X71.032 Y24.323 E26.20511
G1 X71.467 Y23.621 E26.24356
G1 X71.682 Y23.302 E26.26148
G1 X72.229 Y22.561 E26.30436
G1 X72.926 Y21.782 E26.35304
G1 X73.145 Y21.56 E26.36756
G1 X73.819 Y20.933 E26.41042
G1 X74.462 Y20.428 E26.44849
G1 X74.758 Y20.213 E26.46553
G1 X75.525 Y19.704 E26.50839
G1 X76.397 Y19.234 E26.55452
G1 X76.703 Y19.087 E26.57033
G1 X77.549 Y18.725 E26.61317
G1 X78.4 Y18.444 E26.6549
G1 X78.749 Y18.345 E26.6718
G1 X79.645 Y18.133 E26.71467
G1 X80.655 Y17.989 E26.76218
G1 X80.965 Y17.96 E26.77667
G1 X81.783 Y17.915 E26.81482
G1 X82.662 Y17.901 E26.85576
G1 X137.458 Y17.901 E29.40729
G1 X138.164 Y17.912 E29.44016
G1 X138.865 Y17.946 E29.47284
G1 X139.182 Y17.972 E29.48766
G1 X140.096 Y18.088 E29.53056
G1 X140.879 Y18.252 E29.56781
G1 X141.196 Y18.331 E29.58302
G1 X142.079 Y18.592 E29.62589
G1 X142.946 Y18.933 E29.66928
G1 X143.285 Y19.084 E29.68656
G1 X144.109 Y19.495 E29.72943
G1 X144.926 Y19.997 E29.77408
G1 X145.225 Y20.2 E29.79091
G1 X145.964 Y20.75 E29.83381
G1 X146.718 Y21.427 E29.88099
G1 X146.954 Y21.66 E29.89643
G1 X147.581 Y22.335 E29.93933
G1 X148.149 Y23.064 E29.98237
G1 X148.355 Y23.354 E29.99893
G1 X148.855 Y24.127 E30.0418
G1 X149.279 Y24.927 E30.08396
G1 X149.437 Y25.258 E30.10104
G1 X149.874 Y26.317 E30.15438
G1 X150.152 Y27.113 E30.19364
G1 X150.562 Y28.345 E30.2541
G1 X151.431 Y30.726 E30.37212
G1 X152.365 Y33.073 E30.48975
G1 X153.361 Y35.389 E30.60714
G1 X154.433 Y37.695 E30.72555
G1 X155.558 Y39.949 E30.84285
G1 X156.745 Y42.166 E30.95995
G1 X158.009 Y44.375 E31.07846
G1 X159.332 Y46.542 E31.19668
G1 X160.699 Y48.646 E31.31352
G1 X162.144 Y50.736 E31.43183
G1 X163.628 Y52.76 E31.5487
G1 X165.192 Y54.77 E31.66729
G1 X166.799 Y56.72 E31.78495
G1 X168.447 Y58.606 E31.90157
G1 X170.078 Y60.35 E32.01276
G1 X170.26 Y60.562 E32.02577
G1 X171.341 Y61.716 E32.0994
G1 X172.52 Y63.016 E32.18112
G1 X173.189 Y63.78 E32.2284
G1 X174.539 Y65.378 E32.32581
G1 X175.144 Y66.122 E32.37046
G1 X176.345 Y67.65 E32.46096
G1 X176.834 Y68.295 E32.49865
G1 X177.964 Y69.837 E32.58767
G1 X178.629 Y70.781 E32.64144
G1 X179.641 Y72.27 E32.72527
G1 X180.279 Y73.245 E32.77952
G1 X181.323 Y74.909 E32.87099
G1 X181.837 Y75.762 E32.91737
G1 X182.785 Y77.397 E33.00537
G1 X183.182 Y78.108 E33.04329
G1 X184.191 Y79.989 E33.14268
G1 X184.547 Y80.682 E33.17896
G1 X185.474 Y82.568 E33.27682
G1 X185.835 Y83.338 E33.31642
G1 X186.596 Y85.031 E33.40285
G1 X187.081 Y86.164 E33.46023
G1 X187.73 Y87.755 E33.54024
G1 X188.158 Y88.861 E33.59547
G1 X188.753 Y90.48 E33.67578
G1 X189.143 Y91.602 E33.73109
G1 X189.754 Y93.469 E33.82257
G1 X190.021 Y94.337 E33.86485
G1 X190.535 Y96.112 E33.9509
G1 X190.832 Y97.208 E34.00378
G1 X191.3 Y99.071 E34.09322
G1 X191.528 Y100.051 E34.14007
G1 X191.925 Y101.899 E34.22809
G1 X192.095 Y102.759 E34.26891
G1 X192.451 Y104.749 E34.36304
G1 X192.623 Y105.825 E34.41378
G1 X192.882 Y107.643 E34.49929
G1 X192.993 Y108.528 E34.54082
G1 X193.214 Y110.571 E34.6365
G1 X193.288 Y111.395 E34.67503
G1 X193.443 Y113.544 E34.77535
G1 X193.494 Y114.5 E34.81993
G1 X193.564 Y116.434 E34.91005
G1 X193.582 Y117.41 E34.9555
G1 X193.585 Y119.411 E35.04868
G1 X193.572 Y120.237 E35.08714
G1 X193.504 Y122.28 E35.18233
G1 X193.452 Y123.285 E35.22919
G1 X193.334 Y125.028 E35.31053
G1 X193.229 Y126.253 E35.36778
G1 X193.038 Y128.091 E35.45383
G1 X192.939 Y128.912 E35.49234
G1 X192.643 Y131.047 E35.5927
G1 X192.517 Y131.849 E35.6305
G1 X192.191 Y133.722 E35.71903
G1 X191.964 Y134.902 E35.77498
G1 X191.578 Y136.73 E35.86198
G1 X191.344 Y137.747 E35.91057
G1 X190.874 Y139.633 E36.00108
G1 X190.667 Y140.41 E36.03852
G1 X190.11 Y142.364 E36.13313
G1 X189.848 Y143.229 E36.17522
G1 X189.22 Y145.171 E36.27025
G1 X188.895 Y146.116 E36.31679
G1 X188.296 Y147.772 E36.39879
G1 X187.88 Y148.861 E36.45307
G1 X187.211 Y150.525 E36.53658
G1 X186.756 Y151.601 E36.59098
G1 X186.052 Y153.187 E36.67178
G1 X185.571 Y154.226 E36.72509
G1 X184.814 Y155.786 E36.80583
G1 X184.351 Y156.7 E36.85354
G1 X183.464 Y158.375 E36.9418
G1 X182.873 Y159.447 E36.9988
G1 X181.901 Y161.133 E37.08942
G1 X181.472 Y161.846 E37.12816
G1 X180.496 Y163.416 E37.21424
G1 X179.818 Y164.464 E37.27236
G1 X178.873 Y165.869 E37.35121
G1 X178.183 Y166.855 E37.40725
G1 X177.163 Y168.263 E37.4882
